X:913
M:C|
L:1/8
K:G
|:Bc|d2B2g2B2|d2d2d3e|d2B2g2fg|a2A2A2GA|B2Bd cBAG|A2B2g3a|
bagf efge|d2B2B2:|

